build/svg/cmd/ca/sc_italic.svg

<?xml version="1.0" encoding="UTF-8" standalone="no"?>
<svg
   xmlns:dc="http://purl.org/dc/elements/1.1/"
   xmlns:cc="http://creativecommons.org/ns#"
   xmlns:rdf="http://www.w3.org/1999/02/22-rdf-syntax-ns#"
   xmlns:svg="http://www.w3.org/2000/svg"
   xmlns="http://www.w3.org/2000/svg"
   xmlns:sodipodi="http://sodipodi.sourceforge.net/DTD/sodipodi-0.dtd"
   xmlns:inkscape="http://www.inkscape.org/namespaces/inkscape"
   viewBox="0 0 16 16"
   version="1.1"
   id="svg4"
   sodipodi:docname="sc_italic.svg"
   inkscape:export-filename="/home/jupiter007/Libreoffice yaru theme fullcolor/build/cmd/ca/sc_italic.png"
   inkscape:export-xdpi="96"
   inkscape:export-ydpi="96"
   inkscape:version="0.92.5 (2060ec1f9f, 2020-04-08)">
  <metadata
     id="metadata10">
    <rdf:RDF>
      <cc:Work
         rdf:about="">
        <dc:format>image/svg+xml</dc:format>
        <dc:type
           rdf:resource="http://purl.org/dc/dcmitype/StillImage" />
      </cc:Work>
    </rdf:RDF>
  </metadata>
  <defs
     id="defs8" />
  <sodipodi:namedview
     pagecolor="#ffffff"
     bordercolor="#666666"
     borderopacity="1"
     objecttolerance="10"
     gridtolerance="10"
     guidetolerance="10"
     inkscape:pageopacity="0"
     inkscape:pageshadow="2"
     inkscape:window-width="1920"
     inkscape:window-height="1011"
     id="namedview6"
     showgrid="true"
     inkscape:zoom="41.7193"
     inkscape:cx="2.081222"
     inkscape:cy="8.5599213"
     inkscape:window-x="1920"
     inkscape:window-y="32"
     inkscape:window-maximized="1"
     inkscape:current-layer="svg4">
    <inkscape:grid
       type="xygrid"
       id="grid812" />
  </sodipodi:namedview>
  <path
     inkscape:connector-curvature="0"
     style="opacity:0.6;fill:#000000;stroke:#000000;stroke-width:3;stroke-linejoin:round;stroke-miterlimit:4;stroke-dasharray:none;stroke-opacity:1"
     id="path814"
     d="m 9.5828087,2.4805622 c -0.9876003,0 -1.9132356,0.1565931 -2.7791746,0.4689366 C 5.9376948,3.2618423 5.1824092,3.7002672 4.5383223,4.2646772 3.9013918,4.8236077 3.3963311,5.4968774 3.0241919,6.2859557 2.6592093,7.0695542 2.4769867,7.9324786 2.4769867,8.8749888 c 0,0.679484 0.1142203,1.3040602 0.3432291,1.8739492 0.2361652,0.569891 0.5735262,1.060513 1.0100739,1.471492 0.436548,0.410978 0.9686929,0.731082 1.5984668,0.961229 0.6369304,0.224669 1.3559092,0.337779 2.1574397,0.337779 1.0162262,0 1.912128,-0.139165 2.6850318,-0.418629 0.780061,-0.284946 1.462732,-0.685097 2.049567,-1.200191 L 11.644144,11.27537 c -0.03578,-0.0548 -0.113696,-0.08265 -0.235357,-0.08265 -0.107347,0 -0.23609,0.05741 -0.386378,0.172483 -0.150288,0.109594 -0.354294,0.233125 -0.611928,0.370118 -0.257634,0.136993 -0.5877343,0.264029 -0.9884997,0.379102 -0.4007652,0.109594 -0.9058261,0.1635 -1.5141304,0.1635 -0.508113,0 -0.9768671,-0.07826 -1.4062585,-0.237164 C 6.0722012,11.876368 5.7004946,11.643232 5.3856077,11.341847 5.0778773,11.034984 4.8395252,10.664388 4.6677686,10.231491 4.4960122,9.7931148 4.4088759,9.3007847 4.4088759,8.7528137 4.4088759,7.985654 4.537619,7.2914516 4.7952538,6.6722444 5.0600451,6.0530372 5.4191902,5.527646 5.8700509,5.094749 6.3280685,4.6563721 6.8648247,4.3223427 7.4802856,4.0921948 8.102903,3.8565673 8.7684023,3.7382465 9.476898,3.7382465 c 0.3506697,0 0.657024,0.024347 0.921815,0.073664 0.264791,0.043837 0.495192,0.1012462 0.68842,0.1724824 0.193225,0.071237 0.356313,0.1477809 0.492288,0.2299766 0.135974,0.076716 0.254806,0.1515536 0.354997,0.2227898 0.107348,0.071236 0.199785,0.1303518 0.278505,0.1796692 0.07873,0.043838 0.158597,0.066478 0.237319,0.066478 0.100188,0 0.182716,-0.015633 0.247124,-0.04851 0.06441,-0.032878 0.125151,-0.074654 0.182403,-0.1239718 L 13.523078,3.910729 C 13.308383,3.6915405 13.068069,3.494968 12.803277,3.3196173 12.545642,3.1387869 12.256462,2.9874046 11.934418,2.866851 11.619531,2.7408176 11.269608,2.6451368 10.883156,2.5793803 10.496704,2.5136237 10.062295,2.4805622 9.5828087,2.4805622 Z" />
  <path
     d="m 9.5828087,2.4805622 c -0.9876003,0 -1.9132356,0.1565931 -2.7791746,0.4689366 C 5.9376948,3.2618423 5.1824092,3.7002672 4.5383223,4.2646772 3.9013918,4.8236077 3.3963311,5.4968774 3.0241919,6.2859557 2.6592093,7.0695542 2.4769867,7.9324786 2.4769867,8.8749888 c 0,0.679484 0.1142203,1.3040602 0.3432291,1.8739492 0.2361652,0.569891 0.5735262,1.060513 1.0100739,1.471492 0.436548,0.410978 0.9686929,0.731082 1.5984668,0.961229 0.6369304,0.224669 1.3559092,0.337779 2.1574397,0.337779 1.0162262,0 1.912128,-0.139165 2.6850318,-0.418629 0.780061,-0.284946 1.462732,-0.685097 2.049567,-1.200191 L 11.644144,11.27537 c -0.03578,-0.0548 -0.113696,-0.08265 -0.235357,-0.08265 -0.107347,0 -0.23609,0.05741 -0.386378,0.172483 -0.150288,0.109594 -0.354294,0.233125 -0.611928,0.370118 -0.257634,0.136993 -0.5877343,0.264029 -0.9884997,0.379102 -0.4007652,0.109594 -0.9058261,0.1635 -1.5141304,0.1635 -0.508113,0 -0.9768671,-0.07826 -1.4062585,-0.237164 C 6.0722012,11.876368 5.7004946,11.643232 5.3856077,11.341847 5.0778773,11.034984 4.8395252,10.664388 4.6677686,10.231491 4.4960122,9.7931148 4.4088759,9.3007847 4.4088759,8.7528137 4.4088759,7.985654 4.537619,7.2914516 4.7952538,6.6722444 5.0600451,6.0530372 5.4191902,5.527646 5.8700509,5.094749 6.3280685,4.6563721 6.8648247,4.3223427 7.4802856,4.0921948 8.102903,3.8565673 8.7684023,3.7382465 9.476898,3.7382465 c 0.3506697,0 0.657024,0.024347 0.921815,0.073664 0.264791,0.043837 0.495192,0.1012462 0.68842,0.1724824 0.193225,0.071237 0.356313,0.1477809 0.492288,0.2299766 0.135974,0.076716 0.254806,0.1515536 0.354997,0.2227898 0.107348,0.071236 0.199785,0.1303518 0.278505,0.1796692 0.07873,0.043838 0.158597,0.066478 0.237319,0.066478 0.100188,0 0.182716,-0.015633 0.247124,-0.04851 0.06441,-0.032878 0.125151,-0.074654 0.182403,-0.1239718 L 13.523078,3.910729 C 13.308383,3.6915405 13.068069,3.494968 12.803277,3.3196173 12.545642,3.1387869 12.256462,2.9874046 11.934418,2.866851 11.619531,2.7408176 11.269608,2.6451368 10.883156,2.5793803 10.496704,2.5136237 10.062295,2.4805622 9.5828087,2.4805622 Z"
     id="path2"
     style="fill:#ffffff;stroke:#ffffff;stroke-width:1;stroke-linejoin:miter;stroke-miterlimit:4;stroke-dasharray:none;stroke-opacity:1"
     inkscape:connector-curvature="0" />
</svg>

<svg xmlns="http://www.w3.org/2000/svg" viewBox="0 0 16 16"><path d="M9.583 2.48c-.988 0-1.913.157-2.78.47a7.003 7.003 0 00-2.265 1.315 6.141 6.141 0 00-1.514 2.021c-.365.784-.547 1.646-.547 2.589 0 .68.114 1.304.343 1.874a4.21 4.21 0 001.01 1.471 4.6 4.6 0 001.599.962c.637.224 1.356.337 2.157.337 1.016 0 1.912-.139 2.685-.418a6.401 6.401 0 002.05-1.2l-.677-.626c-.036-.054-.114-.082-.235-.082-.108 0-.236.057-.387.172a5.25 5.25 0 01-.612.37 5.182 5.182 0 01-.988.38c-.4.109-.906.163-1.514.163-.508 0-.977-.078-1.406-.237a3.3 3.3 0 01-1.116-.7 3.224 3.224 0 01-.718-1.11 4.023 4.023 0 01-.26-1.478c0-.767.13-1.462.387-2.08A4.742 4.742 0 015.87 5.094a4.661 4.661 0 011.61-1.003 5.594 5.594 0 011.997-.354c.35 0 .657.025.922.074.265.044.495.101.688.172a4.06 4.06 0 01.847.453c.108.071.2.13.279.18a.543.543 0 00.484.018.923.923 0 00.183-.124l.643-.6a4.415 4.415 0 00-.72-.591 3.859 3.859 0 00-.869-.453 5.148 5.148 0 00-1.05-.288 7.8 7.8 0 00-1.301-.098z" opacity=".6" stroke="#000" stroke-width="3" stroke-linejoin="round"/><path d="M9.583 2.48c-.988 0-1.913.157-2.78.47a7.003 7.003 0 00-2.265 1.315 6.141 6.141 0 00-1.514 2.021c-.365.784-.547 1.646-.547 2.589 0 .68.114 1.304.343 1.874a4.21 4.21 0 001.01 1.471 4.6 4.6 0 001.599.962c.637.224 1.356.337 2.157.337 1.016 0 1.912-.139 2.685-.418a6.401 6.401 0 002.05-1.2l-.677-.626c-.036-.054-.114-.082-.235-.082-.108 0-.236.057-.387.172a5.25 5.25 0 01-.612.37 5.182 5.182 0 01-.988.38c-.4.109-.906.163-1.514.163-.508 0-.977-.078-1.406-.237a3.3 3.3 0 01-1.116-.7 3.224 3.224 0 01-.718-1.11 4.023 4.023 0 01-.26-1.478c0-.767.13-1.462.387-2.08A4.742 4.742 0 015.87 5.094a4.661 4.661 0 011.61-1.003 5.594 5.594 0 011.997-.354c.35 0 .657.025.922.074.265.044.495.101.688.172a4.06 4.06 0 01.847.453c.108.071.2.13.279.18a.543.543 0 00.484.018.923.923 0 00.183-.124l.643-.6a4.415 4.415 0 00-.72-.591 3.859 3.859 0 00-.869-.453 5.148 5.148 0 00-1.05-.288 7.8 7.8 0 00-1.301-.098z" fill="#fff" stroke="#fff"/></svg>
